!!!!SEGMENT: pl-kozmzk--mzk-m-137--005_cwiklicz-boleslaw-jan--niczem-sybir-niczem-knuty.krn
!!!cenid: 18xx:2963
!!!COM: Ćwiklicz, Bolesław Jan
!!!COM-rismID: pe41023611
!!!CDT: ~1800-~1899
!!!CNT: Polish
!!!OTL: Niczem Sybir, niczem knuty
!!!PDT:
!!!AGN: Secular
!!!SMS-siglum: PL-KOZmzk
!!!SMS-shelfmark: mzk/m/137
!!!SMS-shelfwork: 005 W
!!!SMS-variant:
!!!SMS-altvar:
!!!NIFC-rismSourceID: 1001084050
!!!NIFC-rismChildID: 1001084050
!!!NIFC-islandoraID: pl-kozmzk:1738
!!!URL-pdf-islandora: https://repozytorium.nifc.pl/islandora/object/pl-kozmzk%3A1738/datastream/PDF/view
!!!URL-scan: https://polish.musicsources.pl/pl/lokalizacje/galeria/rekopisy/450 @EN{Scan on Polish Music Sources Website} @PL{Skany w portalu Dziedzictwo Muzyki Polskiej w otwartym dostępie}
!!!IIIF:
!!!ONB-nifc:
!!!AIN: 2 vox
!!!key:
**kern	**dynam	**kern	**text	**dynam
*part2	*part2	*part1	*part1	*part1
*staff2	*	*staff1	*staff1	*
*Ivox	*	*Ivox	*	*
*I"Voce	*	*I"Voce	*	*
*clefF4	*	*clefG2	*	*
*k[b-]	*	*k[b-]	*	*
*d:	*	*d:	*	*
*M2/2	*	*M2/2	*	*
*	*	*	*	*below
=1	=1	=1	=1	=1
*^	*	*^	*	*
!	!	!	!LO:TX:a:t=Polskiej młodzieży.	!	!	!
!	!	!	!LO:TX:a:t=5. Niczem Sybir, niczem knuty...	!	!	!
!LO:TX:a:t=Raźno.	!	!	!LO:TX:a:t=Słowa Z. Krasińskiego	!	!	!
2F/	2D\	.	2dd/	2a\	Ni-	pp <
2G/	2GG\	.	2dd/	2b-\	-czem	.
=2	=2	=2	=2	=2	=2	=2
2E/	2AA\	.	2cc#X/	2a\	Sy-	[ >
2E/	2C#X\	.	2a/	2a\	-bir,	.
=3	=3	=3	=3	=3	=3	=3
2F/	(4D\	.	2dd/	2a\	ni-	] <
.	4Cn\)	.	.	.	.	.
2F/	(4BB-\	.	2dd/	2b-\	-czem	.
.	4AA\)	.	.	.	.	.
=4	=4	=4	=4	=4	=4	=4
(4G/	2GG\	.	2dd/	2b-\	knu-	[ >
4F/)	.	.	.	.	.	.
2E/	2AA\	.	2cc#X/	2a\	-ty	.
=5	=5	=5	=5	=5	=5	=5
2F/	2D\	.	2dd/	2a\	I	] <
2G/	2C\	.	2ee/	2ccn\	cie-	.
=6	=6	=6	=6	=6	=6	=6
2.B-/	(2BB-\	.	2.ff/	2.dd\	-le-	.
.	4AA\)	.	.	.	.	.
4B-/	4GG\	.	4gg/	4dd\	-snych	.
=7	=7	=7	=7	=7	=7	=7
2A/	2FF\	.	(2aa/	2dd\	mę-	.
2Bn/	2GG\	.	4gg/)	2dd\	.	[ >
!	!	!	!LO:TX:a:t=muzyka B. Cwiklicza	!	!	!
.	.	.	4ff/	.	-czarń	.
!!LO:PB:g=original
=8	=8	=8	=8	=8	=8	=8
1c#X/	1AA\	.	1ee/	1cc#X\	król,	.
=9	=9	=9	=9	=9	=9	=9
!	!	!LO:DY:a	!	!	!	!LO:DY:a
2F#X/	2D\	mf	2dd/	2a\	Lecz	] mf
2E/	2C#X\	.	2a/	2g\	na-	.
=10	=10	=10	=10	=10	=10	=10
2D/	2BBn\	.	2bn/	2f#X\	-ro-	.
2C#X/	2AA#X\	.	2f#X/	2e\	-du	.
=11	=11	=11	=11	=11	=11	=11
2.D/	(2BBn\	.	(2g/	(2e\	duch	<
.	4AA\)	.	4a/)	4f#X\)	.	.
4D/	4GG\	.	4bn/	4g\	za-	.
=12	=12	=12	=12	=12	=12	=12
(4E/	2EE\	.	2bn/	2g\	-tru-	[ >
4D/)	.	.	.	.	.	.
2C#X/	2AA\	.	2a/	2e\	-ty,	.
=13	=13	=13	=13	=13	=13	=13
!	!	!	!	!	!	!LO:DY:a
2Cn/	2BB-\	.	2ccn/	2e\	To	] p
2C/	2AA\	.	2fn/	2fn\	do-	<
=14	=14	=14	=14	=14	=14	=14
2C#X/	2GG\	.	2a/	2e\	-pie-	.
2D/	2FF\	.	2a/	2d\	-ro	.
=15	=15	=15	=15	=15	=15	=15
2.D/	(2GG\	.	(2b-/	(2g\	bó-	[
.	4AA\)	.	4a/)	4f\)	.	>
4D/	4BB-\	.	4g/	4e\	-lów	.
!!LO:LB:g=original
=16	=16	=16	=16	=16	=16	=16
1C#X/	1AA\	.	1a/	1e\	ból	.
=17	=17	=17	=17	=17	=17	=17
(2F/	(2D\	.	2.a/	2.a\	(bó-	] >
4E/)	4C#X\)	.	.	.	.	.
4D/	4BBn\	.	4a/	4a\	-lów	.
=18	=18	=18	=18	=18	=18	=18
1E/	1C#X\	.	1a/	1a\	ból!...)	.
=19	=19	=19	=19	=19	=19	=19
2F/	2D\	.	2dd/	(4a\	Ni-	] p <
.	.	.	.	4ccn\)	.	.
(4G/	2GG\	.	2dd/	2b-\	-czem	.
4F/)	.	.	.	.	.	.
=20	=20	=20	=20	=20	=20	=20
(4E/	2AA\	.	2cc#X/	2a\	Sy-	[ >
4G/)	.	.	.	.	.	.
(4F/	(4BBn\	.	2a/	2a\	-bir,	.
4E/)	4C#X\)	.	.	.	.	.
=21	=21	=21	=21	=21	=21	=21
2F/	(4D\	.	2dd/	2a\	ni-	] <
.	4Cn\)	.	.	.	.	.
2F/	(4BB-\	.	2dd/	2b-\	-czem	.
.	4AA\)	.	.	.	.	.
=22	=22	=22	=22	=22	=22	=22
(4G/	2GG\	.	2dd/	2b-\	knu-	[ >
4F/)	.	.	.	.	.	.
2E/	2AA\	.	2cc#X/	(4a\	-ty...	.
.	.	.	.	4g\)	.	.
!!LO:LB:g=original
=23	=23	=23	=23	=23	=23	=23
(2D/	1BB-\	.	1dd/	(>2f\	ni-	] >
2E/)	.	.	.	2g\)	.	.
=24	=24	=24	=24	=24	=24	=24
1E/	1AA\	.	1cc#X/	1a\	-czem!...	.
=25	=25	=25	=25	=25	=25	=25
2F/	2D\	.	2dd/	(>4a\	I	] mf <
.	.	.	.	4b-\)	.	.
2G/	2C\	.	2ee/	(>4cc\	cie-	.
.	.	.	.	4g\)	.	.
=26	=26	=26	=26	=26	=26	=26
2.B-/	(2BB-\	.	2.ff/	(4dd\	le-	.
.	.	.	.	4cc\)	.	.
.	4AA\)	.	.	2dd\	.	.
4B-/	4GG\	.	4gg/	.	-snych	.
=27	=27	=27	=27	=27	=27	=27
(4A/	2FF\	.	(2aa/	2dd\	mę-	.
4B-/)	.	.	.	.	.	.
2Bn/	2GG\	.	4gg/)	2dd\	.	[ >
.	.	.	4ff/	.	-czarń	.
=28	=28	=28	=28	=28	=28	=28
1c#X/	1AA\	.	1ee/	1cc#X\	król,	.
=29	=29	=29	=29	=29	=29	=29
(4F#X/	2D\	.	2dd/	2a\	Lecz	] f
4G/)	.	.	.	.	.	.
(4F#/	2C#X\	.	2a/	2g\	na-	.
4E/)	.	.	.	.	.	.
!!LO:LB:g=original
=30	=30	=30	=30	=30	=30	=30
(4D/	2BBn\	.	2bn/	2f#X\	-ro-	.
4E/)	.	.	.	.	.	.
(4D/	2AA#X\	.	2f#X/	2e\	-du	.
4C#X/)	.	.	.	.	.	.
=31	=31	=31	=31	=31	=31	=31
(4C#X/	(2BBn\	.	(2g/	(2e\	duch	<
4D/)	.	.	.	.	.	.
(4C#/	4AA\)	.	4a/)	4f\)	.	.
4D/)	4GG\	.	4bn/	4g\	za-	.
=32	=32	=32	=32	=32	=32	=32
(4E/	2EE\	.	2bn/	2g\	-tru-	[ >
4D/)	.	.	.	.	.	.
2C#X/	2AA\	.	2a/	(>4f#X\	-ty,	.
.	.	.	.	4e\)	.	.
=33	=33	=33	=33	=33	=33	=33
2Cn/	(>4BB-X\	.	2ccn/	2e\	To	] ???
.	4AA\)	.	.	.	.	.
2C/	(>4GG#X\	.	2fn/	2fn\	do-	<
.	4AA\)	.	.	.	.	.
=34	=34	=34	=34	=34	=34	=34
2C#X/	(>4GGn\	.	2a/	2e\	-pie-	.
.	4FF\)	.	.	.	.	.
2D/	(4EE\	.	2a/	2d\	-ro	.
.	4FF\)	.	.	.	.	.
=35	=35	=35	=35	=35	=35	=35
2.D/	(<2GG\	.	(2b-/	(2g\	bó-	[ >
.	4AA\)	.	4a/)	4f\)	.	.
4D/	4BB-\	.	4g/	4e\	-lów	.
=36	=36	=36	=36	=36	=36	=36
!LO:TX:t=P:problem=dźwięk DD w nawiasie	!	!	!	!	!	!
1D/	1DD\;	.	1a/;	1f#X\	ból.	.
=37	=37	=37	=37	=37	=37	=37
2.D/	(2GG\	.	(2bn/	(2g\	(bó-	] pp
.	4AA\)	.	4a/)	4f#X\)	.	.
4D/	4BBn\	.	4g/	4e\	-lów	.
=38	=38	=38	=38	=38	=38	=38
1D/	1DD\	.	1a/;	1fn\	ból!)	.
*v	*v	*	*	*	*	*
*	*	*v	*v	*	*
==	==	==	==	==
*-	*-	*-	*-	*-
!!!system-decoration: [(s1,s2)]
!!!RDF**kern: > = above
!!!RDF**kern: < = below
!!!ENC: Marcin Jachim
!!!END: 2021-08-11
!!!ENC: Leszek Kubiak
!!!END: 2021-09-08
!!!YEC: Copyright 2022 Narodowy Instytut Fryderyka Chopina (https://polishscores.org)
!!!YEM: License CC-BY-4.0 (https://creativecommons.org/licenses/by/4.0)
